assets/imgs/btn_download.svg

<svg width="30" height="30" viewBox="0 0 30 30" fill="none" xmlns="http://www.w3.org/2000/svg">
<path d="M4 20.1035V23.3416C4 24.4462 4.89543 25.3416 6 25.3416H24C25.1046 25.3416 26 24.4462 26 23.3416V20.1035" stroke="#4B4B4B" stroke-width="2.5" stroke-linecap="round"/>
<path d="M14.965 5V11.7222V20.1032M14.965 20.1032C16.0476 20.1032 20.7618 14.8651 20.7618 14.8651M14.965 20.1032C13.8825 20.1032 9.23804 14.8651 9.23804 14.8651" stroke="#4B4B4B" stroke-width="2.5" stroke-linecap="round"/>
</svg>

<svg width="30" height="30" fill="none" xmlns="http://www.w3.org/2000/svg"><path d="M4 20.104v3.238a2 2 0 0 0 2 2h18a2 2 0 0 0 2-2v-3.238M14.965 5V20.103m0 0c1.083 0 5.797-5.238 5.797-5.238m-5.797 5.238c-1.082 0-5.727-5.238-5.727-5.238" stroke="#4B4B4B" stroke-width="2.5" stroke-linecap="round"/></svg>
